Origami/32x32/apps/resharper.svg

<svg width="32" height="32" version="1" xmlns="http://www.w3.org/2000/svg">
 <path d="M 3.4003906,31 C 2.6247906,31 2,30.375209 2,29.599609 v -1 C 2,29.375209 2.6247906,30 3.4003906,30 H 16 28.599609 C 29.375209,30 30,29.375209 30,28.599609 v 1 C 30,30.375209 29.375209,31 28.599609,31 H 16 Z" style="opacity:.2"/>
 <path d="m16 2h-12.6c-0.7756 0-1.4 0.6244-1.4 1.4v12.6h14z" style="fill:#c72566"/>
 <path d="m16 2h12.6c0.7756 0 1.4 0.6244 1.4 1.4v12.6h-14z" style="fill:#ff8c2a"/>
 <path d="m16 30h-12.6c-0.7756 0-1.4-0.6244-1.4-1.4v-12.6h14z" style="fill:#cf4f8c"/>
 <path d="m16 30h12.6c0.7756 0 1.4-0.6244 1.4-1.4v-12.6h-14z" style="fill:#c72566"/>
 <path d="M 3.4003906 2 C 2.6247906 2 2 2.6247906 2 3.4003906 L 2 4.4003906 C 2 3.6247906 2.6247906 3 3.4003906 3 L 16 3 L 28.599609 3 C 29.375209 3 30 3.6247906 30 4.4003906 L 30 3.4003906 C 30 2.6247906 29.375209 2 28.599609 2 L 16 2 L 3.4003906 2 z" style="fill:#ffffff;opacity:.2"/>
 <rect x="6" y="6" width="20" height="20" style="fill:#3f3f3f"/>
 <path d="m9.0002425 23.9999h7.9999995" style="fill:none;opacity:.2;stroke-linecap:round;stroke-width:2;stroke:#000000"/>
 <path d="m9.0002425 23h7.9999995" style="fill:none;stroke-linecap:round;stroke-width:2;stroke:#ffffff"/>
 <path d="m13.000245 17.99966-2.000002-3m-2.0000005-1.000003s4.0000025 0.464501 4.0000025-1.999997c0-2.4645014-4.0000025-2.0000014-4.0000025-2.0000014m9.8e-5 8.0000994v-8.0000014" style="fill:none;opacity:.2;stroke-linecap:round;stroke-width:1.9999999;stroke:#000000"/>
 <path d="m13.000245 16.99976-2.000002-3m-2.0000005-1.000003s4.0000025 0.464501 4.0000025-1.999997c0-2.4645014-4.0000025-2.0000014-4.0000025-2.0000014m9.8e-5 8.0000994v-8.0000014" style="fill:none;stroke-linecap:round;stroke-width:1.9999999;stroke:#ffffff"/>
 <path d="m16.000292 15.999709h8m-8-4.0001h8m-1.99995 6.00005v-8.0000004m-4.0001 8.0000004v-8.0000004" style="fill:none;opacity:.2;stroke-linecap:round;stroke-width:2;stroke:#000000"/>
 <path d="m16.000292 14.999809h8m-8-4.0001h8m-1.99995 6.00005v-8.0000004m-4.0001 8.0000004v-8.0000004" style="fill:none;stroke-linecap:round;stroke-width:2;stroke:#ffffff"/>
</svg>

<svg xmlns="http://www.w3.org/2000/svg" width="32" height="32" version="1">
 <path style="opacity:0.2" d="M 3.4003906,31 C 2.6247906,31 2,30.375209 2,29.599609 v -1 C 2,29.375209 2.6247906,30 3.4003906,30 H 16 28.599609 C 29.375209,30 30,29.375209 30,28.599609 v 1 C 30,30.375209 29.375209,31 28.599609,31 H 16 Z"/>
 <path style="fill:#c72566" d="M 16,2 H 3.4 C 2.6244,2 2,2.6244 2,3.4 V 16 h 14 z"/>
 <path style="fill:#ff8c2a" d="M 16,2 H 28.6 C 29.3756,2 30,2.6244 30,3.4 V 16 H 16 Z"/>
 <path style="fill:#cf4f8c" d="M 16,30 H 3.4 C 2.6244,30 2,29.3756 2,28.6 V 16 h 14 z"/>
 <path style="fill:#c72566" d="M 16,30 H 28.6 C 29.3756,30 30,29.3756 30,28.6 V 16 H 16 Z"/>
 <path style="fill:#ffffff;opacity:0.2" d="M 3.4003906 2 C 2.6247906 2 2 2.6247906 2 3.4003906 L 2 4.4003906 C 2 3.6247906 2.6247906 3 3.4003906 3 L 16 3 L 28.599609 3 C 29.375209 3 30 3.6247906 30 4.4003906 L 30 3.4003906 C 30 2.6247906 29.375209 2 28.599609 2 L 16 2 L 3.4003906 2 z"/>
 <rect style="fill:#3f3f3f" width="20" height="20" x="6" y="6"/>
 <path style="opacity:0.2;fill:none;stroke:#000000;stroke-width:2;stroke-linecap:round" d="M 9.0002425,23.9999 H 17.000242"/>
 <path style="fill:none;stroke:#ffffff;stroke-width:2;stroke-linecap:round" d="M 9.0002425,23 H 17.000242"/>
 <path style="opacity:0.2;fill:none;stroke:#000000;stroke-width:1.99999988;stroke-linecap:round" d="m 13.000245,17.99966 -2.000002,-3 M 9.0002425,13.999657 c 0,0 4.0000025,0.464501 4.0000025,-1.999997 0,-2.4645014 -4.0000025,-2.0000014 -4.0000025,-2.0000014 m 9.8e-5,8.0000994 V 9.9997566"/>
 <path style="fill:none;stroke:#ffffff;stroke-width:1.99999988;stroke-linecap:round" d="m 13.000245,16.99976 -2.000002,-3 M 9.0002425,12.999757 c 0,0 4.0000025,0.464501 4.0000025,-1.999997 0,-2.4645014 -4.0000025,-2.0000014 -4.0000025,-2.0000014 m 9.8e-5,8.0000994 V 8.9998566"/>
 <path style="opacity:0.2;fill:none;stroke:#000000;stroke-width:2;stroke-linecap:round" d="m 16.000292,15.999709 h 8 v 0 0 m -8,-4.0001 h 8 v 0 0 m -1.99995,6.00005 v -8.0000004 0 0 m -4.0001,8.0000004 v -8.0000004 0 0"/>
 <path style="fill:none;stroke:#ffffff;stroke-width:2;stroke-linecap:round" d="m 16.000292,14.999809 h 8 v 0 0 m -8,-4.0001 h 8 v 0 0 m -1.99995,6.00005 v -8.0000004 0 0 m -4.0001,8.0000004 v -8.0000004 0 0"/>
</svg>
